react/assets/icons/paperclip.svg

<svg role="img" xmlns="http://www.w3.org/2000/svg" width="48px" height="48px" viewBox="0 0 24 24" aria-labelledby="paperclipIconTitle" stroke-linecap="square" stroke-linejoin="miter" fill="none"> <title id="paperclipIconTitle">Paperclip</title> <path d="M7.93517339,13.7795989 L15.1617306,6.55304173 C16.03921,5.67631227 17.4656766,5.67631227 18.343156,6.55304173 C19.2206355,7.43052116 19.2206355,8.85773771 18.343156,9.73521714 L8.40091248,19.5477137 C6.93619681,21.0124294 4.56325242,21.0124294 3.09853675,19.5477137 C1.63382108,18.083748 1.63382108,15.7093037 3.09853675,14.245338 L12.9335328,4.53783896 C14.9839848,2.48738701 18.3094068,2.48738701 20.3568588,4.53783896 C22.4088107,6.58904088 22.4088107,9.91146301 20.3583588,11.961915 L13.2390491,19.0819746"/> </svg>

<svg xmlns="http://www.w3.org/2000/svg" width="48" height="48" viewBox="0 0 24 24" aria-labelledby="paperclipIconTitle" stroke-linecap="square" fill="none"><path d="M7.935 13.78l7.227-7.227a2.253 2.253 0 013.181 0 2.252 2.252 0 010 3.182l-9.942 9.813a3.748 3.748 0 01-5.302 0 3.748 3.748 0 010-5.303l9.835-9.707a5.248 5.248 0 017.423 0 5.248 5.248 0 01.001 7.424l-7.119 7.12"/></svg>
